images/logo-16.svg

<svg xmlns="http://www.w3.org/2000/svg" width="16.8" height="16" data-name="Layer 1" viewBox="0 0 16.8 16"><ellipse cx="2.3" cy="8.3" fill="#fc6" rx="1.8" ry="2.2"/><ellipse cx="14.5" cy="8.3" fill="#fc6" rx="1.8" ry="2.2"/><ellipse cx="5.9" cy="4.2" fill="#fc6" rx="2.1" ry="3"/><ellipse cx="10.5" cy="4.2" fill="#fc6" rx="2.1" ry="3"/><path fill="#fc6" d="M7.7 7.8c-3.9.2-4.4 5.1-4.4 5.1-.1 2.2 2.4 1.7 3.1 1.5s1.4-1.6 3.3-.3 3.2.5 3.8-1.2-1.8-5.2-5.8-5.1zm2.9 3.2v.4l-.6.6-1.5 1.5h-.2l-1.5-1.4-.2-.2-.3-.4V11a1.3 1.3 0 0 1 0-.5 1 1 0 0 1 .6-.7h1l.4.3h.3l.4-.2h1a1 1 0 0 1 .5.8z"/></svg>

<svg id="Layer_1" data-name="Layer 1" xmlns="http://www.w3.org/2000/svg" width="16.8" height="16" viewBox="0 0 16.8 16"><title>logo-16</title><ellipse cx="2.3" cy="8.3" rx="1.8" ry="2.2" fill="#fc6"/><ellipse cx="14.5" cy="8.3" rx="1.8" ry="2.2" fill="#fc6"/><ellipse cx="5.9" cy="4.2" rx="2.1" ry="3" fill="#fc6"/><ellipse cx="10.5" cy="4.2" rx="2.1" ry="3" fill="#fc6"/><path d="M7.7,7.8c-3.9.2-4.4,5.1-4.4,5.1-.1,2.2,2.4,1.7,3.1,1.5s1.4-1.6,3.3-.3,3.2.5,3.8-1.2S11.7,7.7,7.7,7.8ZM10.6,11h0v.4L10,12,8.5,13.5H8.3L6.8,12.1l-.2-.2-.3-.4V11a1.3,1.3,0,0,1,0-.5,1,1,0,0,1,.6-.7h1l.4.3h.3L9,9.9H10a1,1,0,0,1,.5.8h0Z" fill="#fc6"/></svg>
